img/icon-key.svg

<svg fill="none" height="32" viewBox="0 0 32 32" width="32" xmlns="http://www.w3.org/2000/svg"><g fill="#fff"><path clip-rule="evenodd" d="m14.2117 3.1459c-1.5279-1.52787-4.0051-1.52787-5.53292 0l-5.53288 5.53288c-1.52787 1.52782-1.52787 4.00502 0 5.53292l5.53288 5.5329c1.52782 1.5278 4.00502 1.5278 5.53292 0l5.5329-5.5329c1.5278-1.5279 1.5278-4.0051 0-5.53292zm-4.84131 2.07483c.38197-.38197 1.00121-.38197 1.38321 0s.382 1.00125 0 1.38322l-4.14965 4.14965c-.38197.382-1.00125.382-1.38322 0s-.38197-1.00124 0-1.38321z" fill-rule="evenodd"/><path d="m16.2142 20.4744 4.3425-4.3426 8.825 8.825c.8245.8245.8245 2.1612 0 2.9856l-1.4928 1.4929c-.8244.8244-2.1611.8244-2.9856 0l-.0092-.0093c-.1584-.1583-.2474-.3731-.2474-.5971v-3.0276c0-.4664-.378-.8445-.8444-.8445h-3.0276c-.224 0-.4388-.0889-.5972-.2473l-.9981-.9981c-.1584-.1584-.2473-.3732-.2473-.5972v-1.7913c0-.4664-.3781-.8445-.8445-.8445z"/></g></svg>

<svg width="32" height="32" viewBox="0 0 32 32" fill="none" xmlns="http://www.w3.org/2000/svg">
<path fill-rule="evenodd" clip-rule="evenodd" d="M14.2117 3.1459C12.6838 1.61803 10.2066 1.61803 8.67878 3.1459L3.1459 8.67878C1.61803 10.2066 1.61803 12.6838 3.1459 14.2117L8.67878 19.7446C10.2066 21.2724 12.6838 21.2724 14.2117 19.7446L19.7446 14.2117C21.2724 12.6838 21.2724 10.2066 19.7446 8.67878L14.2117 3.1459ZM9.37039 5.22073C9.75236 4.83876 10.3716 4.83876 10.7536 5.22073C11.1356 5.6027 11.1356 6.22198 10.7536 6.60395L6.60395 10.7536C6.22198 11.1356 5.6027 11.1356 5.22073 10.7536C4.83876 10.3716 4.83876 9.75236 5.22073 9.37039L9.37039 5.22073Z" fill="white"/>
<path d="M16.2142 20.4744L20.5567 16.1318L29.3817 24.9568C30.2062 25.7813 30.2062 27.118 29.3817 27.9424L27.8889 29.4353C27.0645 30.2597 25.7278 30.2597 24.9033 29.4353L24.8941 29.426C24.7357 29.2677 24.6467 29.0529 24.6467 28.8289L24.6467 25.8013C24.6467 25.3349 24.2687 24.9568 23.8023 24.9568H20.7747C20.5507 24.9568 20.3359 24.8679 20.1775 24.7095L19.1794 23.7114C19.021 23.553 18.9321 23.3382 18.9321 23.1142L18.9321 21.3229C18.9321 20.8565 18.554 20.4784 18.0876 20.4784L16.2142 20.4744Z" fill="white"/>
</svg>
